X:282
T: NN           s. Lian Bo Protokoll
N: C0519
O: China, Anhui
S: MM, s. Lian Bo, S. 12]
N: Kanalausfaelle und uebersteuert.
N: Hinter Phr.1 und 2 jeweils 1 Takt, hinter Phr.5 2 Takte Pause wegge-
N: lassen.
R: Xiaodiao, Huangmeixi xuanduan]
M: 2/4
L: 1/16
K: G
d2BBBAG2 | A2BAG2E2 | E3BA2G2 | G2E6
d2B2BAG2 | A3BAGE2 | D8
d3BBAG2 | A3BA2GE | D2E6
G2G4B2 | A2BAE2D2 | D3EG4
A3GEDE2 | D8
D3EG4 | B3BA2GE | D2E6
G2G4B2 | A2BAE2D2 | D3EG4
A3GEDE2 | D8

